X:1
T:Title
%%score { 1 | 2 }
L:1/8
M:3/4
K:Ab
V:1 treble nm="Grand Piano"
V:2 bass 
V:1
 z2 z2[Q:1/4=100] [CE]>[CE] | [CE]3 [EA] [DG][CA] | B4 E>E | B3 B AB | c4 [=Ec]>[GB] | %5
 A3 F [=DB][B,FA] | [B,EG]4 [CEA]>[CEA] | [B,EG][G,E] [B,EG]2 F2 | E4 c>d | e3 [Ec] [EB][EA] | %10
 [DF]4 [FA]>F | E3 A Bc | [CA]4 z2 |] %13
V:2
 z2 z2 [A,,A,]>[A,,A,] | [A,,A,]3 [C,E,] [B,,E,][A,,A,] | [E,G,E]4 E,>E, | %3
 [E,G,D]3 [E,G,D] [E,A,C][E,G,E] | [A,E]4 [C,G,]>[C,C] | [F,CF]3 [F,A,] [B,,F,]B,, | E,4 A,,>A,, | %7
 B,,B,, B,,2 [B,,A,B,]2 | [E,G,B,]4[K:treble] [A,E]>[A,B,E] | %9
 [A,CA]3[K:bass] [A,,A,] [B,,G,][C,A,] | [D,A,]4 [D,A,]>[D,A,D] | [E,A,C]3 [E,A,C] [E,G,D][E,G,E] | %12
 [A,,A,]4 z2 |] %13

